X: 7982
T:Untitled Reel
R:Reel
O:Shetland
M:C
K:Am
eaag egeB|c2gc acgc|eaag eged\
|1 cABG A4 :|2 cABG A3c ||
|:\
BE (3EEE c2ce|dcde gedg|eaag eged\
|1 cABG A3c :|2 cABG A4 |]
